packages/ffe-icons/icons/filled/lg/warehouse.svg

<svg xmlns="http://www.w3.org/2000/svg" height="40" viewBox="0 -960 960 960" width="40"><path d="M100.001-202.565v-421.332q0-19.718 10.859-35.358 10.859-15.641 28.577-23.052l317.435-126.794q11.359-4.949 23.128-4.949t23.128 4.949l317.435 126.794q17.718 7.411 28.577 23.052 10.859 15.64 10.859 35.358v421.332q0 25.872-18.346 44.218-18.346 18.346-44.218 18.346H640v-307.692q0-5.385-3.462-8.847-3.462-3.461-8.847-3.461H332.309q-5.385 0-8.847 3.461-3.462 3.462-3.462 8.847v307.692H162.565q-25.872 0-44.218-18.346-18.346-18.346-18.346-44.218Zm276.025 62.564v-61.025h61.025v61.025h-61.025Zm73.462-120v-61.025h61.024v61.025h-61.024Zm73.461 120v-61.025h61.025v61.025h-61.025Z"/></svg>

<svg xmlns="http://www.w3.org/2000/svg" viewBox="0 -960 960 960" width="32" height="32"><path d="M100-202.57V-623.9q0-19.71 10.86-35.36 10.86-15.64 28.58-23.05L456.87-809.1q11.36-4.95 23.13-4.95t23.13 4.95l317.43 126.79q17.72 7.41 28.58 23.05Q860-643.61 860-623.9v421.33q0 25.88-18.35 44.22Q823.31-140 797.43-140H640v-307.69q0-5.39-3.46-8.85t-8.85-3.46H332.31q-5.39 0-8.85 3.46t-3.46 8.85V-140H162.57q-25.88 0-44.22-18.35Q100-176.69 100-202.57ZM376.03-140v-61.03h61.02V-140h-61.02Zm73.46-120v-61.03h61.02V-260h-61.02Zm73.46 120v-61.03h61.02V-140h-61.02Z"/></svg>
